X:2273
T:Polska (no 145) efter Petter Dufva
R:Polska
Z:Sven Midgren, 2012-03-07
S:efter Petter Dufva 
O:Verkelbäck, Småland
M:3/4
L:1/8
K:G
|: BB G,B G,B | cc A,c A,c | BB G,B G,B | cc A,c A,c | G/A/B/c/ de/f/ gB | A/c/A/F/ G2 G,2 :|
|: GB Bddg | gb bgge | d/e/f/g/ aa/b/ ag| gf/g/ a/g/f/e/ d2 | 
BB dd BB | cc ee cc | BB dd BB | cc ee cc | B/d/B/G/ cA BG | A/c/A/F/ G2 G,2 :|
(:musicend:)
(:music:)
